X:960
T:Bonnie Gallowa
C:Joe Buchanan's Scottish Tome - Page 559.2
I:559 2
Z:Carl Allison
R:Waltz
L:1/4
M:4/4
K:G
D | "G"B2 F | "G7"A2 G | "C"E G2 | "G"D2 E | "Em"G2 B | "A7"A2 B | "D7"A2 D |
"G"B2 F | "B7"A2 G | "Am"E G2 | "G"D3 | "G"D2 E | "Em"G2 B | "D7"A2 G | "G"G3 | 
"G"d2 d | "G7"B2 G | "G"d3 | "G"d2 d | "Em"B2 A | "A7"G F G | "D7"A2 D |
"G"B2 F | "B7"A2 G | "C"E G2 | "G"D3 | "Bm"D2 E | "Em"G2 B | "D7"A2 G | "G"G3 |]

